usr/share/icons/biglinux-icons-material/scalable/mimetypes/text-x-copying.svg

<svg width="24" height="24" viewBox="0 0 24 24" fill="none" xmlns="http://www.w3.org/2000/svg">
<rect x="1" y="1" width="22" height="22" rx="6.6" fill="url(#paint0_radial_6_189)"/>
<path d="M12.161 15.9599C11.6575 15.9599 11.1863 15.8695 10.7474 15.6888C10.3214 15.508 9.94707 15.2499 9.62433 14.9142C9.30161 14.5786 9.04988 14.1655 8.86916 13.6749C8.68843 13.1715 8.59807 12.6035 8.59807 11.9709C8.59807 11.3513 8.69489 10.8027 8.88853 10.325C9.09507 9.83449 9.36616 9.4214 9.7018 9.08576C10.0374 8.73722 10.4247 8.47904 10.8636 8.31121C11.3025 8.13049 11.7608 8.04012 12.2384 8.04012C12.871 8.04012 13.3809 8.13049 13.7682 8.31121C14.1684 8.47903 14.4394 8.61458 14.5814 8.71786L14.2135 9.58922C14.0199 9.48595 13.7682 9.37622 13.4584 9.26004C13.1614 9.13096 12.7548 9.06641 12.2384 9.06641C11.5285 9.06641 10.9346 9.31814 10.457 9.82159C9.99227 10.325 9.75991 11.0415 9.75991 11.971C9.75991 12.9263 9.98582 13.6621 10.4376 14.1785C10.9024 14.682 11.5285 14.9337 12.3159 14.9337C12.871 14.9337 13.3035 14.8756 13.6133 14.7594C13.936 14.6303 14.1684 14.5206 14.3104 14.4302L14.6396 15.3597C14.4717 15.4629 14.1748 15.592 13.7488 15.747C13.3228 15.889 12.7935 15.9599 12.161 15.9599ZM18.6284 11.9904C18.6284 13.1005 18.4477 14.0881 18.0862 14.953C17.7248 15.8179 17.2407 16.5537 16.634 17.1604C16.0401 17.7543 15.3431 18.2125 14.5427 18.5353C13.7553 18.8451 12.9291 19 12.0643 19C11.1994 19 10.3667 18.8451 9.56634 18.5353C8.77889 18.2125 8.08181 17.7543 7.4751 17.1604C6.88127 16.5537 6.40363 15.8179 6.04218 14.953C5.68073 14.0881 5.5 13.1005 5.5 11.9904C5.5 10.8931 5.68073 9.91196 6.04218 9.047C6.40363 8.16918 6.88127 7.43336 7.4751 6.83954C8.08182 6.24572 8.7789 5.7939 9.56634 5.48409C10.3667 5.16136 11.1993 5 12.0643 5C12.9292 5 13.7553 5.16136 14.5427 5.48409C15.3431 5.79391 16.0402 6.24573 16.634 6.83954C17.2407 7.43336 17.7248 8.16918 18.0862 9.047C18.4477 9.91191 18.6284 10.893 18.6284 11.9904ZM17.486 11.9904C17.486 11.0996 17.3504 10.2863 17.0793 9.55045C16.8082 8.81462 16.4338 8.18853 15.9562 7.67216C15.4786 7.1429 14.9041 6.73626 14.2329 6.45225C13.5745 6.16825 12.8516 6.02625 12.0641 6.02625C11.2767 6.02625 10.5473 6.16825 9.87613 6.45225C9.21777 6.73625 8.64976 7.14288 8.17213 7.67216C7.69449 8.18853 7.32013 8.81462 7.04904 9.55045C6.77795 10.2863 6.6424 11.0996 6.6424 11.9904C6.6424 12.8811 6.77795 13.6944 7.04904 14.4303C7.32014 15.1661 7.6945 15.7987 8.17213 16.328C8.64976 16.8444 9.21777 17.251 9.87613 17.5479C10.5474 17.8319 11.2767 17.9739 12.0641 17.9739C12.8516 17.9739 13.5745 17.8319 14.2329 17.5479C14.9041 17.251 15.4786 16.8444 15.9562 16.328C16.4339 15.7987 16.8082 15.1661 17.0793 14.4303C17.3504 13.6944 17.486 12.8811 17.486 11.9904Z" fill="#999999"/>
<defs>
<radialGradient id="paint0_radial_6_189" cx="0" cy="0" r="1" gradientUnits="userSpaceOnUse" gradientTransform="translate(17.5 1) rotate(116.565) scale(24.5967)">
<stop stop-color="#F4F4F4"/>
<stop offset="1" stop-color="#BBBBBB"/>
</radialGradient>
</defs>
</svg>

<svg xmlns="http://www.w3.org/2000/svg" width="24" height="24" fill="none"><rect width="22" height="22" x="1" y="1" fill="url(#a)" rx="6.6"/><path fill="#999" d="M12.161 15.96c-.503 0-.975-.09-1.414-.271-.426-.181-.8-.44-1.123-.775a3.512 3.512 0 0 1-.755-1.24c-.18-.502-.27-1.07-.27-1.703 0-.62.096-1.168.29-1.646a3.83 3.83 0 0 1 .813-1.24 3.168 3.168 0 0 1 1.162-.774c.438-.18.897-.27 1.374-.27.633 0 1.143.09 1.53.27.4.168.671.304.813.407l-.367.871a6.476 6.476 0 0 0-.756-.329c-.297-.129-.703-.194-1.22-.194-.71 0-1.303.252-1.781.756-.465.503-.697 1.22-.697 2.149 0 .955.226 1.691.678 2.207.464.504 1.09.756 1.878.756.555 0 .987-.058 1.297-.175.323-.129.555-.238.697-.329l.33.93c-.168.103-.465.232-.891.387-.426.142-.956.213-1.588.213Zm6.467-3.97c0 1.11-.18 2.098-.542 2.963a6.771 6.771 0 0 1-1.452 2.207 6.205 6.205 0 0 1-2.091 1.375 6.709 6.709 0 0 1-2.479.465 6.861 6.861 0 0 1-2.498-.465 6.47 6.47 0 0 1-2.09-1.375c-.595-.606-1.072-1.342-1.434-2.207-.361-.865-.542-1.852-.542-2.963 0-1.097.18-2.078.542-2.943.362-.878.84-1.614 1.433-2.207a6.213 6.213 0 0 1 2.091-1.356A6.618 6.618 0 0 1 12.064 5c.865 0 1.691.161 2.479.484.8.31 1.497.762 2.091 1.356.607.593 1.09 1.33 1.452 2.207.362.865.542 1.846.542 2.943Zm-1.142 0c0-.89-.136-1.704-.407-2.44a5.558 5.558 0 0 0-1.123-1.878 4.82 4.82 0 0 0-1.723-1.22 5.418 5.418 0 0 0-2.169-.426c-.787 0-1.517.142-2.188.426a4.862 4.862 0 0 0-1.704 1.22A5.557 5.557 0 0 0 7.05 9.55c-.271.736-.407 1.55-.407 2.44 0 .891.136 1.704.407 2.44a5.779 5.779 0 0 0 1.123 1.898 5.213 5.213 0 0 0 1.704 1.22c.671.284 1.4.426 2.188.426.788 0 1.51-.142 2.169-.426a5.16 5.16 0 0 0 1.723-1.22 5.778 5.778 0 0 0 1.123-1.898c.271-.736.407-1.549.407-2.44Z"/><defs><radialGradient id="a" cx="0" cy="0" r="1" gradientTransform="rotate(116.565 8.441 5.908) scale(24.5967)" gradientUnits="userSpaceOnUse"><stop stop-color="#F4F4F4"/><stop offset="1" stop-color="#BBB"/></radialGradient></defs></svg>
